icons/steering-line.svg

<svg xmlns="http://www.w3.org/2000/svg" width="24" height="24" fill="none"><g clip-path="url(#a)"><g><path fill="#121212" d="M21.8 14.001C21.3858 16.0237 20.3563 17.8688 18.8525 19.2834C17.3487 20.6981 15.4442 21.6131 13.4 21.903V19.878C14.9098 19.6087 16.3106 18.9117 17.4358 17.8697C18.5611 16.8278 19.3636 15.4847 19.748 14L21.8 14.001ZM4.25201 14.001C4.63223 15.4685 5.42108 16.798 6.5269 17.835C7.63273 18.8719 9.01012 19.5738 10.499 19.859V21.889C8.47493 21.5806 6.59409 20.6589 5.11013 19.2483C3.62618 17.8376 2.61048 16.0059 2.20001 14H4.25201V14.001ZM18 11V13H15C14.4954 12.9998 14.0094 13.1904 13.6395 13.5335C13.2695 13.8766 13.0429 14.3468 13.005 14.85L13 15V18H11V15C11.0002 14.4954 10.8096 14.0094 10.4665 13.6395C10.1234 13.2695 9.65317 13.0428 9.15001 13.005L9.00001 13H6.00001V11H18ZM12 2C17.185 2 21.449 5.947 21.95 11H19.938C19.694 9.0669 18.7529 7.28927 17.2914 6.00068C15.8299 4.71208 13.9485 4.00108 12 4.00108C10.0516 4.00108 8.17008 4.71208 6.70858 6.00068C5.24709 7.28927 4.30604 9.0669 4.06201 11H2.04901C2.55101 5.947 6.81501 2 12 2Z"/></g></g><defs><clipPath id="a"><rect width="24" height="24" fill="white"/></clipPath></defs></svg>

<svg width="24" height="24" fill="none" xmlns="http://www.w3.org/2000/svg"><g clip-path="url(#a)"><path d="M21.8 14.001a10.009 10.009 0 0 1-8.4 7.902v-2.025A8.01 8.01 0 0 0 19.748 14l2.052.001Zm-17.548 0a8.01 8.01 0 0 0 6.247 5.858v2.03A10.01 10.01 0 0 1 2.2 14h2.052v.001ZM18 11v2h-3a2 2 0 0 0-1.995 1.85L13 15v3h-2v-3a2 2 0 0 0-1.85-1.995L9 13H6v-2h12Zm-6-9c5.185 0 9.449 3.947 9.95 9h-2.012a8 8 0 0 0-15.876 0H2.049C2.551 5.947 6.815 2 12 2Z" /></g><defs><clipPath id="a"><path fill="#fff" d="M0 0h24v24H0z"/></clipPath></defs></svg>
